source/images/icons/icon-utility/file-pdf.svg

<?xml version="1.0" encoding="UTF-8"?>
<svg width="24px" height="24px" viewBox="0 0 24 24" version="1.1" xmlns="http://www.w3.org/2000/svg" xmlns:xlink="http://www.w3.org/1999/xlink">
    <!-- Generator: Sketch 55.2 (78181) - https://sketchapp.com -->
    <title>Icons/24px/File-PDF</title>
    <desc>Created with Sketch.</desc>
    <g id="Icons/24px/File-PDF" stroke="none" stroke-width="1" fill="none" fill-rule="evenodd">
        <path d="M21,13 L22,13 C22.5522847,13 23,13.4477153 23,14 C23,14.5522847 22.5522847,15 22,15 L21,15 L21,17 C21,17.5522847 20.5522847,18 20,18 C19.4477153,18 19,17.5522847 19,17 L19,11 C19,10.4477153 19.4477153,10 20,10 L23,10 C23.5522847,10 24,10.4477153 24,11 C24,11.5522847 23.5522847,12 23,12 L21,12 L21,13 Z M15,4.41421356 L15,7 L17.5857864,7 L15,4.41421356 Z M20.7071068,7.29289322 C21.3370716,7.92285808 20.8909049,9 20,9 L14,9 C13.4477153,9 13,8.55228475 13,8 L13,3 L6,3 C5.44771525,3 5,3.44771525 5,4 L5,20 C5,20.5522847 5.44771525,21 6,21 L18,21 C18.5522847,21 19,20.5522847 19,20 C19,19.4477153 19.4477153,19 20,19 C20.5522847,19 21,19.4477153 21,20 C21,21.6568542 19.6568542,23 18,23 L6,23 C4.34314575,23 3,21.6568542 3,20 L3,4 C3,2.34314575 4.34314575,1 6,1 L14,1 C14.1326082,1 14.2625008,1.02633921 14.3826834,1.07612047 C14.5088835,1.12918772 14.6166246,1.20241103 14.7071068,1.29289325 L20.7071068,7.29289322 Z M10,13 C10,12.4477153 9.55228475,12 9,12 L9,14 C9.55228475,14 10,13.5522847 10,13 Z M9,17 C9,18.3333333 7,18.3333333 7,17 L7,11 C7,10.4477153 7.44771525,10 8,10 L9,10 C10.6568542,10 12,11.3431458 12,13 C12,14.6568542 10.6568542,16 9,16 L9,17 Z M15,16 C15.5522847,16 16,15.5522847 16,15 L16,13 C16,12.4477153 15.5522847,12 15,12 L15,16 Z M14,10 L15,10 C16.6568542,10 18,11.3431458 18,13 L18,15 C18,16.6568542 16.6568542,18 15,18 L14,18 C13.4477153,18 13,17.5522847 13,17 L13,11 C13,10.4477153 13.4477153,10 14,10 Z" id="Icon" fill="#ADB5BD"></path>
    </g>
</svg>

<svg width="24" height="24">
    <title>
        Icons/24px/File-PDF
    </title>
    <path d="M21 13h1a1 1 0 0 1 0 2h-1v2a1 1 0 0 1-2 0v-6a1 1 0 0 1 1-1h3a1 1 0 0 1 0 2h-2v1zm-6-8.586V7h2.586L15 4.414zm5.707 2.879C21.337 7.923 20.891 9 20 9h-6a1 1 0 0 1-1-1V3H6a1 1 0 0 0-1 1v16a1 1 0 0 0 1 1h12a1 1 0 0 0 1-1 1 1 0 0 1 2 0 3 3 0 0 1-3 3H6a3 3 0 0 1-3-3V4a3 3 0 0 1 3-3h8a1 1 0 0 1 .707.293l6 6zM10 13a1 1 0 0 0-1-1v2a1 1 0 0 0 1-1zm-1 4c0 1.333-2 1.333-2 0v-6a1 1 0 0 1 1-1h1a3 3 0 0 1 0 6v1zm6-1a1 1 0 0 0 1-1v-2a1 1 0 0 0-1-1v4zm-1-6h1a3 3 0 0 1 3 3v2a3 3 0 0 1-3 3h-1a1 1 0 0 1-1-1v-6a1 1 0 0 1 1-1z" fill="#ADB5BD" fill-rule="evenodd"/>
</svg>
